src/assets/plaingallery.svg

<svg xmlns="http://www.w3.org/2000/svg" viewBox="479 342 199 47">
  <g fill="none">
    <path fill="#fff" d="M0 0h197.6643v46.00846H0z"/>
    <path fill="#e5e5e5" d="M479.42016 342.5h46.00846v46.00846h-46.00846z"/>
    <path fill="#ccc" d="M499.0924 377.3709l8.4797-16.85287c.49644-.9867 1.6988-1.38413 2.6855-.88763.3866.1945.6996.5091.8922.89666l8.3945 16.89544c.49145.9892.088 2.18953-.9012 2.681-.2781.13817-.5845.2097-.895.2089l-16.8741-.04257c-1.1046-.00279-1.99776-.90047-1.995-2.00503.0008-.3105.0739-.61654.2134-.8939z"/>
    <path fill="#c9c9c9" d="M485.24447 377.35524l11.61093-23.07614c.4965-.9867 1.6988-1.3841 2.68554-.88765.38656.1945.69961.50915.89216.89668l11.49434 23.13444c.49146.9892.08801 2.18953-.90119 2.68103-.27805.13814-.58445.20966-.89495.20887l-23.1053-.05829c-1.10455-.00278-1.9977-.90048-1.99493-2.00504.00078-.31049.07383-.61654.2134-.8939z"/>
    <path fill="#e5e5e5" d="M529.76107 342.5h46.00846v46.00846h-46.00846z"/>
    <path fill="#ccc" d="M549.43333 377.3709l8.47967-16.85287c.49645-.9867 1.6988-1.38413 2.6855-.88763.3866.1945.6996.5091.8922.89666l8.3945 16.89544c.49146.9892.088 2.18953-.9012 2.681-.2781.13817-.5845.2097-.895.2089l-16.8741-.04257c-1.1046-.00279-1.99775-.90047-1.99497-2.00503.00077-.3105.07387-.61654.2134-.8939z"/>
    <path fill="#c9c9c9" d="M535.5854 377.35524l11.6109-23.07614c.4965-.9867 1.69884-1.3841 2.68554-.88765.38656.1945.69962.50915.89216.89668l11.49435 23.13444c.49149.9892.08801 2.18953-.90119 2.68103-.27806.13814-.58446.20966-.89496.20887l-23.1053-.05829c-1.10454-.00278-1.9977-.90048-1.9949-2.00504.00076-.31049.0738-.61654.2134-.8939z"/>
    <path fill="#e5e5e5" d="M580.102 342.5h46.00846v46.00846H580.102z"/>
    <path fill="#ccc" d="M599.77424 377.3709l8.47966-16.85287c.49646-.9867 1.6988-1.38413 2.6855-.88763.3866.1945.69964.5091.8922.89666l8.3945 16.89544c.4915.9892.088 2.18953-.9012 2.681-.2781.13817-.5845.2097-.895.2089l-16.8741-.04257c-1.1046-.00279-1.99774-.90047-1.99496-2.00503.00076-.3105.07386-.61654.2134-.8939z"/>
    <path fill="#c9c9c9" d="M585.9263 377.35524l11.6109-23.07614c.4965-.9867 1.69885-1.3841 2.68555-.88765.38655.1945.69965.50915.89215.89668l11.49436 23.13444c.49149.9892.08804 2.18953-.90116 2.68103-.2781.13814-.5845.20966-.895.20887l-23.1053-.05829c-1.1045-.00278-1.9977-.90048-1.9949-2.00504.0008-.31049.0738-.61654.2134-.8939z"/>
    <path fill="#e5e5e5" d="M631.076 342.5h46.00846v46.00846H631.076z"/>
    <path fill="#ccc" d="M650.7483 377.3709l8.4796-16.85287c.4965-.9867 1.6988-1.38413 2.68554-.88763.38656.1945.69966.5091.89216.89666l8.3945 16.89544c.4915.9892.088 2.18953-.9012 2.681-.27805.13817-.58445.2097-.89494.2089l-16.87416-.04257c-1.10455-.00279-1.9977-.90047-1.9949-2.00503.00075-.3105.0738-.61654.2134-.8939z"/>
    <path fill="#c9c9c9" d="M636.9003 377.35524l11.61095-23.07614c.49645-.9867 1.69885-1.3841 2.68555-.88765.38654.1945.6996.50915.89214.89668l11.49436 23.13444c.4915.9892.088 2.18953-.9012 2.68103-.2781.13814-.5845.20966-.895.20887l-23.10524-.05829c-1.10456-.00278-1.99776-.90048-1.99496-2.00504.0008-.31049.07385-.61654.2134-.8939z"/>
  </g>
</svg>

<?xml version="1.0" encoding="UTF-8" standalone="no"?>
<!DOCTYPE svg PUBLIC "-//W3C//DTD SVG 1.1//EN" "http://www.w3.org/Graphics/SVG/1.1/DTD/svg11.dtd">
<svg xmlns="http://www.w3.org/2000/svg" xmlns:xl="http://www.w3.org/1999/xlink" version="1.1" viewBox="479 342 199 47" width="199pt" height="47pt" xmlns:dc="http://purl.org/dc/elements/1.1/">
  <metadata> Produced by OmniGraffle 7.5 
    <dc:date>2018-02-27 22:04:57 +0000</dc:date>
  </metadata>
  <defs/>
  <g stroke="none" stroke-opacity="1" stroke-dasharray="none" fill="none" fill-opacity="1">
    <title>Canvas 1</title>
    <rect fill="white" width="197.6643" height="46.00846"/>
    <g>
      <title>Layer 1</title>
      <rect x="479.42016" y="342.5" width="46.00846" height="46.00846" fill="#e5e5e5"/>
      <path d="M 499.0924 377.3709 L 507.5721 360.51803 C 508.06854 359.53133 509.2709 359.1339 510.2576 359.6304 C 510.6442 359.8249 510.9572 360.1395 511.1498 360.52706 L 519.5443 377.4225 C 520.03575 378.4117 519.6323 379.61203 518.6431 380.1035 C 518.365 380.24167 518.0586 380.3132 517.7481 380.3124 L 500.874 380.26983 C 499.7694 380.26704 498.87624 379.36936 498.879 378.2648 C 498.8798 377.9543 498.9529 377.64826 499.0924 377.3709 Z" fill="#ccc"/>
      <path d="M 485.24447 377.35524 L 496.8554 354.2791 C 497.3519 353.2924 498.5542 352.895 499.54094 353.39145 C 499.9275 353.58595 500.24055 353.9006 500.4331 354.28813 L 511.92744 377.42257 C 512.4189 378.41177 512.01545 379.6121 511.02625 380.1036 C 510.7482 380.24174 510.4418 380.31326 510.1313 380.31247 L 487.026 380.25418 C 485.92145 380.2514 485.0283 379.3537 485.03107 378.24914 C 485.03185 377.93865 485.1049 377.6326 485.24447 377.35524 Z" fill="#c9c9c9"/>
      <rect x="529.76107" y="342.5" width="46.00846" height="46.00846" fill="#e5e5e5"/>
      <path d="M 549.43333 377.3709 L 557.913 360.51803 C 558.40945 359.53133 559.6118 359.1339 560.5985 359.6304 C 560.9851 359.8249 561.2981 360.1395 561.4907 360.52706 L 569.8852 377.4225 C 570.37666 378.4117 569.9732 379.61203 568.984 380.1035 C 568.7059 380.24167 568.3995 380.3132 568.089 380.3124 L 551.2149 380.26983 C 550.1103 380.26704 549.21715 379.36936 549.21993 378.2648 C 549.2207 377.9543 549.2938 377.64826 549.43333 377.3709 Z" fill="#ccc"/>
      <path d="M 535.5854 377.35524 L 547.1963 354.2791 C 547.6928 353.2924 548.89514 352.895 549.88184 353.39145 C 550.2684 353.58595 550.58146 353.9006 550.774 354.28813 L 562.26835 377.42257 C 562.75984 378.41177 562.35636 379.6121 561.36716 380.1036 C 561.0891 380.24174 560.7827 380.31326 560.4722 380.31247 L 537.3669 380.25418 C 536.26236 380.2514 535.3692 379.3537 535.372 378.24914 C 535.37276 377.93865 535.4458 377.6326 535.5854 377.35524 Z" fill="#c9c9c9"/>
      <rect x="580.102" y="342.5" width="46.00846" height="46.00846" fill="#e5e5e5"/>
      <path d="M 599.77424 377.3709 L 608.2539 360.51803 C 608.75036 359.53133 609.9527 359.1339 610.9394 359.6304 C 611.326 359.8249 611.63904 360.1395 611.8316 360.52706 L 620.2261 377.4225 C 620.7176 378.4117 620.3141 379.61203 619.3249 380.1035 C 619.0468 380.24167 618.7404 380.3132 618.4299 380.3124 L 601.5558 380.26983 C 600.4512 380.26704 599.55806 379.36936 599.56084 378.2648 C 599.5616 377.9543 599.6347 377.64826 599.77424 377.3709 Z" fill="#ccc"/>
      <path d="M 585.9263 377.35524 L 597.5372 354.2791 C 598.0337 353.2924 599.23605 352.895 600.22275 353.39145 C 600.6093 353.58595 600.9224 353.9006 601.1149 354.28813 L 612.60926 377.42257 C 613.10075 378.41177 612.6973 379.6121 611.7081 380.1036 C 611.43 380.24174 611.1236 380.31326 610.8131 380.31247 L 587.7078 380.25418 C 586.6033 380.2514 585.7101 379.3537 585.7129 378.24914 C 585.7137 377.93865 585.7867 377.6326 585.9263 377.35524 Z" fill="#c9c9c9"/>
      <rect x="631.076" y="342.5" width="46.00846" height="46.00846" fill="#e5e5e5"/>
      <path d="M 650.7483 377.3709 L 659.2279 360.51803 C 659.7244 359.53133 660.9267 359.1339 661.91344 359.6304 C 662.3 359.8249 662.6131 360.1395 662.8056 360.52706 L 671.2001 377.4225 C 671.6916 378.4117 671.2881 379.61203 670.2989 380.1035 C 670.02085 380.24167 669.71445 380.3132 669.40396 380.3124 L 652.5298 380.26983 C 651.42525 380.26704 650.5321 379.36936 650.5349 378.2648 C 650.53565 377.9543 650.6087 377.64826 650.7483 377.3709 Z" fill="#ccc"/>
      <path d="M 636.9003 377.35524 L 648.51125 354.2791 C 649.0077 353.2924 650.2101 352.895 651.1968 353.39145 C 651.58334 353.58595 651.8964 353.9006 652.08894 354.28813 L 663.5833 377.42257 C 664.0748 378.41177 663.6713 379.6121 662.6821 380.1036 C 662.404 380.24174 662.0976 380.31326 661.7871 380.31247 L 638.68186 380.25418 C 637.5773 380.2514 636.6841 379.3537 636.6869 378.24914 C 636.6877 377.93865 636.76075 377.6326 636.9003 377.35524 Z" fill="#c9c9c9"/>
    </g>
  </g>
</svg>
